localPackages/DesignSystem/Sources/DesignSystem/Resources/Assets.xcassets/IconSet/ic-users-filled.imageset/ic-users-filled.svg

<svg width="24" height="24" viewBox="0 0 24 24" fill="none" xmlns="http://www.w3.org/2000/svg">
<g id="ic-users-filled">
<path id="Icon" fill-rule="evenodd" clip-rule="evenodd" d="M12 8.25C12 10.3211 10.3211 12 8.25 12C6.17893 12 4.5 10.3211 4.5 8.25C4.5 6.17893 6.17893 4.5 8.25 4.5C10.3211 4.5 12 6.17893 12 8.25ZM5.43577 13.5C4.4098 13.5 3.45619 14.0329 2.91242 14.91L1.77424 16.746C1.03101 17.9449 1.88594 19.5 3.28825 19.5H13.2118C14.6141 19.5 15.469 17.9449 14.7258 16.746L13.5876 14.91C13.0438 14.0329 12.0902 13.5 11.0642 13.5H5.43577ZM20.4 14.7L22.2 17.1C22.9416 18.0889 22.2361 19.5 21 19.5H16.5V17.5C16.5 16.8509 16.2895 16.2193 15.9 15.7L14.25 13.5H18C18.9443 13.5 19.8334 13.9446 20.4 14.7ZM16.5 12C18.1569 12 19.5 10.6569 19.5 9C19.5 7.34315 18.1569 6 16.5 6C14.8431 6 13.5 7.34315 13.5 9C13.5 10.6569 14.8431 12 16.5 12Z" fill="#0F0F0F"/>
</g>
</svg>

<svg xmlns="http://www.w3.org/2000/svg" width="24" height="24" viewBox="0 0 24 24">
  <g class="ic-users-filled">
    <path fill-rule="evenodd" d="M12 8.25a3.75 3.75 0 1 1-7.5 0 3.75 3.75 0 0 1 7.5 0ZM5.436 13.5a2.97 2.97 0 0 0-2.524 1.41l-1.138 1.836c-.743 1.199.112 2.754 1.514 2.754h9.924c1.402 0 2.257-1.555 1.514-2.754l-1.138-1.836a2.97 2.97 0 0 0-2.524-1.41H5.436ZM20.4 14.7l1.8 2.4c.742.989.036 2.4-1.2 2.4h-4.5v-2a3 3 0 0 0-.6-1.8l-1.65-2.2H18a3 3 0 0 1 2.4 1.2ZM16.5 12a3 3 0 1 0 0-6 3 3 0 0 0 0 6Z" class="Icon"/>
  </g>
</svg>
